X:103
%%musicspace -10
%%titlespace -15
T:The Banks of the Allan
M:6/8
L:1/8
K:D
DE | "D"F2F FED | FAA A2d | "G"Bdd "D"Add | "G"Bdd "A"Add | 
"D"F2F FED | FAA A2d | "G"BdB "Em"AFD | "A"FEE E :|
|: de | "D"f2f fed | faa a2g | f2f fed | "G"gbb b2g | 
"D"fga "A"efg | "Bm"def "D"fed | "G"BdB "Em"AFD | "A"FEE E :|

%%newpage
%%scale 0.8

